X:1
T:Sparks Fly
T:Sparks Fly
T:Words & Music by Taylor Swift
C:Taylor Swift
Z:All Rights Reserved
L:1/8
M:4/4
K:F
V:1 treble 
%%MIDI program 40
V:1
 z8 | z8 | z8 | z8 | z8 | z8 | z8 | z8 |"Dm" z A,AG GFFD |"Bb" F2 (FD) (DC) C2 | %10
w: ||||||||The way you move is like a|full- on * rain- * storm,|
"F" z CGA (AG)F(G- |"C" G A2) z z2 FC- |"Dm" C z AG GFFD |"Bb" F2 F2 CCCC |"F" z2 GA (AG)GF | %15
w: and I'm a house * of cards.|* * You're the|* kind of reck- less that should|send me run- ning but I|kin- da know * that I|
"C" G F2 (F- F D2) z |"Bb" z CA(G F)FF(F |"C" G)(GF)(G A) (F2 D) |"F" z2 A"Am"F"Am" G2 AD- | %19
w: won't get far. * *|And you stood * there in front|* of * me, * just *|close e- nough to touch.|
"Dm" D2 z2 z4 |"Bb" z2 DF F2 DF- | F F2 F- F(FG)G- |"C" GFGF G(GF)(G | A) z G2 AF G2 |: %24
w: |Close e- nough to hope|* you could- * n't * see|* what I was think- ing * of.|* Drop ev- ery- thing|
"Dm" (F D2) (G A)GGF |"Bb" F2 F2 (D C3) |"F" GAAA A2 F2 |"C" GFGF (G A2) F |"Dm" (G A3) F4 | %29
w: now, * meet * me in the|pour- ing rain. *|Kiss me on the side- walk,|take a- way the pain. * 'Cause|I * see|
"Bb" (G A3) F3 C |"F" G A2 (A B A2) (G- |"C" G A2) z GGGF |"Dm" (GF) F2 DFFD |"Bb" F2 F2 C2 CC | %34
w: sparks * fly when-|ev- er you * * smile.|* * Get me with those|green * eyes ba- by, as the|lights go down. Give me|
"F" GAAA A2 F(F |"C" G)GGF (AG) z F |"Dm" (G A3) F4 |"Bb" (G A3) F3 C |"F" G A2 (A B A2 G/F/ | %39
w: some- thing that- 'll haunt me when|* you're not a- round. * 'Cause|I * see|sparks * fly when-|ev- er you * * * *|
"C" E6) z (D |"Dm" E F3- F4) |"Bb" z8 |"F" z8 |1"C" z8 ||"Dm" z (_AG)(G F) F2 (F | %45
w: * smile.|||||My * mind * for- gets|
"Bb" G)FC(F G) F3 |"F" z2 AA F F2 G- |"C" G2 z2 z4 |"Dm" z FFG G F2 C |"Bb" z2 FG GFFF- | %50
w: * to re- mind * me|you're a bad i- dea.||You touch me once and it's|real- ly some- thing, you find|
"F" FFFF cFFE |"C" z A,EE EE F2 |"Bb" z GGG (GF)FF |"C" GGG(G F)FF(G |"F" A2) z"Am" C"Am" EF(ED) | %55
w: * I'm e- ven bet- ter than you|i- ma- gined I would be.|I'm on my guard * for the|rest of the world, * but with you|* I know it's no *|
"Dm" D4 z4 |"Bb" z A,DE- E F2 (D | E) F2 (F G) F3 |"C" z CGF G(GF)A- | A z G2 AF G2 :|2 %60
w: good.|And I could * wait pa-|* tient- ly, * but|I real- ly wish you * would.|* Drop e- very thing|
"C" z4 z2 z C ||"Dm" D2 A2 G2 FD- |"Bb" D(GA)G- G F2 C- |"F" C(GA)F- F(FG)(G- |"C" G A2) z z3 C | %65
w: I'll|run my fing- ers through|* your * hair * and watch|* the * lights * go * wild.|* * Just|
"Dm" D2 (GA) GGFD- |"Bb" D(GA)G- GF F2 |"F" AGAG AA(cG) |"C" (G2 A2) z3 F |"Dm" c2 A2 G2 Fc- | %70
w: keep on * keep- ing your eyes|* on * me, * it's just|wrong e- nough to make it feel *|right. * And|lead me up the stair-|
"Bb" c(GA)(G F) F2 F- |"F" F C2 F- F(FG)(G- |"C" G A2) z z3 C |"Dm" D2 (GA) G2 FD- | %74
w: * case, * won't * you whis-|* per soft * and * slow?|* * I'm|cap- tiv- * a- ted by|
"Bb" D(GA)F- FFFG |"F" A3 F- F2 G2 |"C" z2 G2 AF G2 |"Dm" D2 z (G A)FFD |"Bb" F2 F2 C2 z2 | %79
w: * you * ba- * by like a|fire- works * show.|Drop e- very- thing|now, meet * me in the|pour- ing rain.|
"F" GAAA A2 F2 |"C" GFGF (AG) F2 |"Dm" (G A3) F4 |"Bb" (G A3) F3 C |"F" G A2 (c- c A2) (G- | %84
w: Kiss me on the side- walk,|take a- way the pain. * 'Cause|I * see|sparks * fly when-|ev- er you * * smile.|
"C" G A2) z GGGF |"Dm" (GF) F2 DFFD |"Bb" F2 F2 C2 CC |"F" GAAA A2 F(F |"C" G)GGF (AG) z F | %89
w: * * Get me with those|green * eyes ba- by, as the|lights go down. Give me|some- thing that- 'll haunt me when|* you're not a- round. * 'Cause|
"Dm" (G A3) F4 |"Bb" (G A3) F3 C |"F" G A2 (A B A2 G/F/ |"C" E6) z (D |"Dm" E F3- F4- | %94
w: I * see|sparks * fly when-|ev- er you * * * *|* smile.||
"Bb" F2) z2 z CCE- |"F" E (F3- FGAG- |"C" G2 F)(_A G) G2 F |"Dm" (F2 D3) z z2 |"Bb" z4 z CCE- | %99
w: * And the sparks|* fly, * * * *|* * oh * ba- by|smile. *|And the sparks|
"F" E (F3- F3 E- |"C" E2) z2 z4 |"Dm" z8 |] %102
w: * fly. * *|||

